!!!!SEGMENT: pl-cz--iii-743--001-005_zebrowski-marcin-jozef--magnificat-et-misericordia.krn
!!!cenid: 17xx:2336
!!!COM: Żebrowski, Marcin Józef
!!!COM-rismid: pe30020322
!!!CDT: 1702-1770/06/29
!!!CNT: Polish
!!!OPR: Magnificat
!!!OTL: Et misericordia
!!!OMV: 005
!!!PDT:
!!!AGN:
!!!SMS-siglum: PL-CZ
!!!SMS-shelfmark: III-743
!!!SMS-shelfwork: 001-005 M
!!!SMS-variant: Organo PL-CZ III-743:25
!!!SMS-altvar: Organo PL-CZ III-743:29
!!!NIFC-rismid: 300033495
!!!URL-scan: https://repozytorium.nifc.pl/islandora/object/pl-cz%3A25228/datastream/PDF/view
!!!ONB-nifc: UWAGA: części Magnificatu: 1. Magnificat, 2. Et exultavit, 3. Quia respexit, 4. Quia fecit, 5. Et misericordia, 6. Fecit potentiam, 7. Deposuit potentes, 8. Esurientes implevit bonis, 9. Suscepit Israel, 10. Sicut locutus, 11. Gloria patri (razem z Sicut erat i Amen)
!!!OMD: Grave
!!!key: G
**kern	**fba	**dynam	**kern	**dynam	**kern	**dynam	**kern	**dynam	**kern	**text	**kern	**text	**kern	**text	**kern	**text	**kern	**kern
*part10	*part10	*part10	*part9	*part9	*part8	*part8	*part7	*part7	*part6	*part6	*part5	*part5	*part4	*part4	*part3	*part3	*part2	*part1
*staff10	*staff10	*	*staff9	*	*staff8	*	*staff7	*	*staff6	*staff6	*staff5	*staff5	*staff4	*staff4	*staff3	*staff3	*staff2	*staff1
*I"Baſso pro Organo.	*	*	*I"Viola Oblige:	*	*I"Violino Secondo.	*	*I"Violino Primo	*	*I"Baſso.	*	*I"Tenore.	*	*I"Alto.	*	*I"Canto.	*	*I"Cornuo Secondo. ex g.	*I"Cornuo Primo. ex g
*I'org	*	*	*I'vla	*	*I'vl 2	*	*I'vl 1	*	*I'B	*	*I'T	*	*I'A	*	*I'S	*	*I'cor 2 in G	*I'cor 1 in G
*Iorgan	*	*	*Iviola	*	*Ivioln	*	*Ivioln	*	*Ibass	*	*Itenor	*	*Ialto	*	*Isoprn	*	*Icor	*Icor
*ICklav	*	*	*ICstr	*	*ICstr	*	*ICstr	*	*ICvox	*	*ICvox	*	*ICvox	*	*ICvox	*	*ICbras	*ICbras
*clefF4	*	*	*clefC3	*	*clefG2	*	*clefG2	*	*clefF4	*	*clefC4	*	*clefC3	*	*clefC1	*	*clefG2	*clefG2
*	*	*	*	*	*	*	*	*	*	*	*	*	*	*	*	*	*ITrd3c5	*ITrd3c5
*k[f#]	*	*	*k[f#]	*	*k[f#]	*	*k[f#]	*	*k[f#]	*	*k[f#]	*	*k[f#]	*	*k[f#]	*	*k[f#]	*k[f#]
*G:	*	*	*G:	*	*G:	*	*G:	*	*G:	*	*G:	*	*G:	*	*G:	*	*G:	*G:
*M4/4	*	*	*M4/4	*	*M4/4	*	*M4/4	*	*M4/4	*	*M4/4	*	*M4/4	*	*M4/4	*	*M4/4	*M4/4
*met(c)	*	*	*met(c)	*	*met(c)	*	*met(c)	*	*met(c)	*	*met(c)	*	*met(c)	*	*met(c)	*	*met(c)	*met(c)
=1	=1	=1	=1	=1	=1	=1	=1	=1	=1	=1	=1	=1	=1	=1	=1	=1	=1	=1
!LO:TX:b:t=Grave, tutti e staccato.	!	!	!LO:TX:a:t=Grave	!	!LO:TX:a:t=Grave	!	!	!	!	!	!	!	!	!	!	!	!	!LO:TX:b:t=Grave.
!	!	!	!	!	!	!	!LO:TX:a:t=Grave	!	!LO:TX:b:t=Grave.	!	!	!	!	!	!LO:TX:a:t=Grave.	!	!LO:TX:b:t=Grave.	!LO:TX:a:t=Grave
8E|>\L	.	.	8B|</L	.	8g|</L	.	(16e/LL	.	1r	.	4.e\	Et	4.g\	Et	4.b\	Et	4.g\	4.b\
.	.	.	.	.	.	.	16g/)	.	.	.	.	.	.	.	.	.	.	.
8E|>\	.	.	8B|</	.	8g|</	.	(16b/	.	.	.	.	.	.	.	.	.	.	.
.	.	.	.	.	.	.	16ee/JJ)	.	.	.	.	.	.	.	.	.	.	.
8E|>\	.	.	8B|</	.	8g|</	.	(16ee\LL	.	.	.	.	.	.	.	.	.	.	.
.	.	.	.	.	.	.	16b\)	.	.	.	.	.	.	.	.	.	.	.
8E|>\J	.	.	8B|</J	.	8g|</J	.	(16g\	.	.	.	8e\	mi-	8g\	mi-	8b\	mi-	8g\	8b\
.	.	.	.	.	.	.	16e\JJ)	.	.	.	.	.	.	.	.	.	.	.
8E\L	6 4	.	8A/L	.	(16a\LL	.	4ccT\	.	.	.	4e\	-se-	4a\	-se-	4cc\	-se-	4a\	4cc\
.	.	.	.	.	16cc\)	.	.	.	.	.	.	.	.	.	.	.	.	.
8E\	.	.	8A/	.	(16ee\	.	.	.	.	.	.	.	.	.	.	.	.	.
.	.	.	.	.	16aa\JJ)	.	.	.	.	.	.	.	.	.	.	.	.	.
8E\	5 3	.	8B/	.	(16gg\LL	.	4b\	.	.	.	4e\	-ri-	4g\	-ri-	4b\	-ri-	4g\	4b\
.	.	.	.	.	16ee\)	.	.	.	.	.	.	.	.	.	.	.	.	.
8E\J	.	.	8B/J	.	(16b\	.	.	.	.	.	.	.	.	.	.	.	.	.
.	.	.	.	.	16g\JJ)	.	.	.	.	.	.	.	.	.	.	.	.	.
=2	=2	=2	=2	=2	=2	=2	=2	=2	=2	=2	=2	=2	=2	=2	=2	=2	=2	=2
*	*	*	*	*	*	*	*	*	*	*	*	*	*	*	*	*	*2\right	*2\right
8E\L	4 2	.	8c|</L	.	8f#|</L	.	(16a\LL	.	4.E\	Et	4.c\	-cor-	4.f#\	-cor-	4.a\	-cor-	2a\	2cc\
.	.	.	.	.	.	.	16cc\)	.	.	.	.	.	.	.	.	.	.	.
8E\	.	.	8c|</	.	8f#|</	.	(16ff#\	.	.	.	.	.	.	.	.	.	.	.
.	.	.	.	.	.	.	16aa\JJ)	.	.	.	.	.	.	.	.	.	.	.
8E\	.	.	8c|</	.	8f#|</	.	(16aa\LL	.	.	.	.	.	.	.	.	.	.	.
.	.	.	.	.	.	.	16ff#\)	.	.	.	.	.	.	.	.	.	.	.
8E\J	.	.	8c|</J	.	8f#|</J	.	(16cc\	.	8E\	mi-	8c\	-di-	8f#\	-di-	8a\	-di-	.	.
.	.	.	.	.	.	.	16a\JJ)	.	.	.	.	.	.	.	.	.	.	.
!LO:LB:g=original	!	!	!	!	!	!	!	!	!	!	!	!	!	!	!	!	!	!
=-	=-	=-	=-	=-	=-	=-	=-	=-	=-	=-	=-	=-	=-	=-	=-	=-	=-	=-
*	*	*	*	*	*	*	*	*	*	*	*2\right	*	*2\right	*	*2\right	*	*	*
8E\L	4 2	.	8c|</L	.	(16a\LL	.	8ff#|>\L	.	4F#\	-se-	2c\	-a	2f#\	-a	2a\	-a	4.a\	4.cc\
.	.	.	.	.	16cc\)	.	.	.	.	.	.	.	.	.	.	.	.	.
8E\	.	.	8c|</	.	(16ff#\	.	8ff#|>\	.	.	.	.	.	.	.	.	.	.	.
.	.	.	.	.	16aa\JJ)	.	.	.	.	.	.	.	.	.	.	.	.	.
8E\	.	.	8c|</	.	(16aa\LL	.	8ff#|>\	.	4E\	-ri-	.	.	.	.	.	.	.	.
.	.	.	.	.	16ff#\)	.	.	.	.	.	.	.	.	.	.	.	.	.
8E\J	.	.	8c|</J	.	(16cc\	.	8ff#|>\J	.	.	.	.	.	.	.	.	.	8a\	8cc\
.	.	.	.	.	16a\JJ)	.	.	.	.	.	.	.	.	.	.	.	.	.
!	!	!	!	!	!	!	!	!	!	!	!LO:LB:g=original	!	!	!	!	!	!	!
=3	=3	=3	=3	=3	=3	=3	=3	=3	=3	=3	=3	=3	=3	=3	=3	=3	=3	=3
!	!	!	!	!	!	!	!	!	!	!	!	!	!	!	!	!	!LO:TX:t=P:problem=mixed beam	!
8D#X/L	6 5	.	8B/L	.	8f#|</L	.	(16b\LL	.	4.D#X/	-cor-	4B\	e-	4f#\	e-	4a\	e-	8b\L	8b\L
.	.	.	.	.	.	.	16dd#X\)	.	.	.	.	.	.	.	.	.	.	.
8D#/	.	.	8B/	.	8f#|</	.	(16ff#\	.	.	.	.	.	.	.	.	.	16B/L	16b\L
.	.	.	.	.	.	.	16aa\JJ)	.	.	.	.	.	.	.	.	.	16B/JJ	16b\JJ
8D#/	.	.	8B/	.	8f#|</	.	(16aa\LL	.	.	.	4B\	-jus	4f#\	-jus	4a\	-jus	8B/L	8b\L
.	.	.	.	.	.	.	16ff#\)	.	.	.	.	.	.	.	.	.	.	.
8D#/J	.	.	8B/J	.	8f#|</J	.	(16dd#X\	.	8D#/	-di-	.	.	.	.	.	.	8B/J	8b\J
.	.	.	.	.	.	.	16cc\JJ)	.	.	.	.	.	.	.	.	.	.	.
8D#/L	.	.	8B/L	.	(16f#\LL	.	4bt/	.	2D#/	-a	4B\	a	4f#\	a	4b\	a	2B/	2b\
.	.	.	.	.	16a\)	.	.	.	.	.	.	.	.	.	.	.	.	.
8D#/	.	.	8B/	.	(16dd#X\	.	.	.	.	.	.	.	.	.	.	.	.	.
.	.	.	.	.	16ff#\JJ)	.	.	.	.	.	.	.	.	.	.	.	.	.
8D#/	.	.	8B/	.	(16ff#\LL	.	4a/	.	.	.	4B\	pro-	4f#\	pro-	4a\	pro-	.	.
.	.	.	.	.	16dd#\)	.	.	.	.	.	.	.	.	.	.	.	.	.
8D#/J	.	.	8B/J	.	(16a\	.	.	.	.	.	.	.	.	.	.	.	.	.
.	.	.	.	.	16f#\JJ)	.	.	.	.	.	.	.	.	.	.	.	.	.
=4	=4	=4	=4	=4	=4	=4	=4	=4	=4	=4	=4	=4	=4	=4	=4	=4	=4	=4
!	!	!	!	!	!	!	!	!	!	!	!	!	!	!	!	!	!LO:TX:a:t=2.	!LO:TX:a:t=2.
8Dn/L	4 2	.	8B/L	.	8e/L	.	(16g#X\LL	.	4Dn/	e-	4.B\	-ge-	4.e\	-ge-	4.g#X/	-ge-	0r	0r
.	.	.	.	.	.	.	16b\)	.	.	.	.	.	.	.	.	.	.	.
8D/	.	.	8B/	.	8e/	.	(16ee\	.	.	.	.	.	.	.	.	.	.	.
.	.	.	.	.	.	.	16gg#X\JJ)	.	.	.	.	.	.	.	.	.	.	.
8D/	.	.	8B/	.	8e/	.	(16bb\LL	.	4D/	-jus	.	.	.	.	.	.	.	.
.	.	.	.	.	.	.	16gg#\)	.	.	.	.	.	.	.	.	.	.	.
8D/J	.	.	8B/J	.	8e/J	.	(16ee\	.	.	.	8B\	-ni-	8e\	-ni-	8g#/	-ni-	.	.
.	.	.	.	.	.	.	16b\JJ)	.	.	.	.	.	.	.	.	.	.	.
8D/L	.	.	8B/L	.	(16e\LL	.	8g#X|</L	.	4E/	a	2B\	-e	2e\	-e	2g#/	-ae	.	.
.	.	.	.	.	16g#X\)	.	.	.	.	.	.	.	.	.	.	.	.	.
8D/	.	.	8B/	.	(16b\	.	8g#|</	.	.	.	.	.	.	.	.	.	.	.
.	.	.	.	.	16ee\JJ)	.	.	.	.	.	.	.	.	.	.	.	.	.
!	!	!	!	!	!	!	!	!	!LO:TX:a:t=d	!	!	!	!	!	!	!	!	!
8D/	.	.	8B/	.	(16ee\LL	.	8g#|</	.	4D/	pro-	.	.	.	.	.	.	.	.
.	.	.	.	.	16b\)	.	.	.	.	.	.	.	.	.	.	.	.	.
8D/J	.	.	8B/J	.	(16g#X\	.	8g#|</J	.	.	.	.	.	.	.	.	.	.	.
.	.	.	.	.	16e\JJ)	.	.	.	.	.	.	.	.	.	.	.	.	.
!	!	!	!	!	!	!	!	!	!LO:LB:g=original	!	!	!	!	!	!	!	!	!
=5	=5	=5	=5	=5	=5	=5	=5	=5	=5	=5	=5	=5	=5	=5	=5	=5	=5	=5
8C/L	6	.	8c/L	.	8e/L	.	16a|>\LL	.	4C/	-ge-	4c\	e-	4e\	e-	4a\	e-	.	.
.	.	.	.	.	.	.	(16a\	.	.	.	.	.	.	.	.	.	.	.
8C/	.	.	8A/	.	8e/	.	16b\	.	.	.	.	.	.	.	.	.	.	.
.	.	.	.	.	.	.	16cc\JJ)	.	.	.	.	.	.	.	.	.	.	.
8GG#X/	6	.	8B/	.	8e/	.	16b|>\LL	.	4GG#X/	-ni-	4B\	-jus	4e\	-jus	4b\	-jus	.	.
.	.	.	.	.	.	.	(16b\	.	.	.	.	.	.	.	.	.	.	.
8GG#/J	.	.	8B/J	.	8e/J	.	16cc\	.	.	.	.	.	.	.	.	.	.	.
*	*	*	*	*	*custos:a	*	*	*	*	*	*	*	*	*	*	*	*	*
.	.	.	.	.	.	.	16dd\JJ)	.	.	.	.	.	.	.	.	.	.	.
!	!	!	!	!	!LO:LB:g=original	!	!LO:LB:g=original	!	!	!	!	!	!	!	!	!	!	!
=-	=-	=-	=-	=-	=-	=-	=-	=-	=-	=-	=-	=-	=-	=-	=-	=-	=-	=-
.	.	.	.	.	.	.	8qqdd/	.	.	.	.	.	.	.	.	.	.	.
8AA/L	.	.	8A/L	.	16a|>\LL	.	4ccT\	.	4AA/	-e	4A/	a	4e\	a	4cc\	a	.	.
.	.	.	.	.	(16a\	.	.	.	.	.	.	.	.	.	.	.	.	.
8AA/	.	.	8A/	.	16b\	.	.	.	.	.	.	.	.	.	.	.	.	.
.	.	.	.	.	16cc\JJ)	.	.	.	.	.	.	.	.	.	.	.	.	.
8BB/	#	.	8F#/	.	16f#|</LL	.	4b\	.	4BB/	pro-	4F#/	pro-	4d#X\	pro-	4b\	pro-	.	.
.	.	.	.	.	(16f#/	.	.	.	.	.	.	.	.	.	.	.	.	.
8BB/J	.	.	8B/J	.	16e/	.	.	.	.	.	.	.	.	.	.	.	.	.
.	.	.	.	.	16d#X/JJ)	.	.	.	.	.	.	.	.	.	.	.	.	.
!	!	!	!	!	!	!	!	!	!	!	!	!	!LO:LB:g=original	!	!	!	!	!
=6	=6	=6	=6	=6	=6	=6	=6	=6	=6	=6	=6	=6	=6	=6	=6	=6	=6	=6
.	.	.	.	.	.	.	.	.	.	.	.	.	.	.	8qqb/	.	.	.
8C/L	6	.	8E/L	.	8e/L	.	(16a\LL	.	4.C/	-ge-	4.E/	-ge-	4.e\	-ge-	4.a\	-ge-	2r	2r
.	.	.	.	.	.	.	16cc\)	.	.	.	.	.	.	.	.	.	.	.
8C/	.	.	8E/	.	8e/	.	(16ee\	.	.	.	.	.	.	.	.	.	.	.
.	.	.	.	.	.	.	16aa\JJ)	.	.	.	.	.	.	.	.	.	.	.
8C/	.	.	8E/	.	8e/	.	(16aa\LL	.	.	.	.	.	.	.	.	.	.	.
.	.	.	.	.	.	.	16ee\)	.	.	.	.	.	.	.	.	.	.	.
8C/J	.	.	8E/J	.	8e/J	.	(16cc\	.	8C/	-ni-	8E/	-ni-	8e\	-ni-	8a\	-ni-	.	.
.	.	.	.	.	.	.	16a\JJ)	.	.	.	.	.	.	.	.	.	.	.
.	.	.	.	.	8qqe/	.	8qqcc/	.	.	.	.	.	.	.	.	.	.	.
8BB/L	#	.	(16B\LL	.	2d#X/	.	2b/	.	2BB/	-e	2F#/	-e	2d#X\	-e	2b\	-e	16r	16r
.	.	.	16d#X\)	.	.	.	.	.	.	.	.	.	.	.	.	.	16B/LL	16b\LL
8BB/	.	.	(16f#\	.	.	.	.	.	.	.	.	.	.	.	.	.	16B/	16b\
.	.	.	16b\JJ)	.	.	.	.	.	.	.	.	.	.	.	.	.	16B/JJ	16b\JJ
8BB/	.	.	(16b\LL	.	.	.	.	.	.	.	.	.	.	.	.	.	4B/	4b\
*	*	*	*	*	*	*	*	*	*	*	*	*	*	*	*	*	*custos:e	*
.	.	.	16f#\)	.	.	.	.	.	.	.	.	.	.	.	.	.	.	.
8BB/J	.	.	(16d#X\	.	.	.	.	.	.	.	.	.	.	.	.	.	.	.
.	.	.	16B\JJ)	.	.	.	.	.	.	.	.	.	.	.	.	.	.	.
!	!	!	!	!	!	!	!	!	!	!	!	!	!	!	!	!	!LO:LB:g=original	!
=7	=7	=7	=7	=7	=7	=7	=7	=7	=7	=7	=7	=7	=7	=7	=7	=7	=7	=7
8D#X/L	6	.	8f#\L	.	2r	.	(16bb\LL	.	4D#X/	a	4f#\	a	(8b\L	a	2r	.	8B/L	8b\L
.	.	.	.	.	.	.	16b\)	.	.	.	.	.	.	.	.	.	.	.
8D#/	.	.	8f#\	.	.	.	16dd#X\	.	.	.	.	.	8d\J)	.	.	.	16B/L	16b\L
.	.	.	.	.	.	.	16ff#\JJ	.	.	.	.	.	.	.	.	.	16B/JJ	16b\JJ
8D#/	5	.	8f#\	.	.	.	16bb\LL	.	4D#/	pro-	4f#\	pro-	(8b\L	pro-	.	.	8B/L	8b\L
.	.	.	.	.	.	.	16aa\	.	.	.	.	.	.	.	.	.	.	.
8D#/J	.	.	8f#\J	.	.	.	16gg\	.	.	.	.	.	8a\J)	.	.	.	8B/J	8b\J
.	.	.	.	.	.	.	16ff#\JJ	.	.	.	.	.	.	.	.	.	.	.
!LO:LB:g=original	!	!	!	!	!	!	!	!	!	!	!	!	!	!	!	!	!	!
=-	=-	=-	=-	=-	=-	=-	=-	=-	=-	=-	=-	=-	=-	=-	=-	=-	=-	=-
!	!	!	!	!	!LO:TX:t=P:problem=mixed beam	!	!	!	!	!	!	!	!	!	!	!	!	!
8E\L	#	.	8B/L	.	(16ee\LL	.	16gg#X\LL	.	8.E\	-ge-	8.B\	-ge-	8.g#X\	-ge-	(8ee\L	a	2B/	2b\
.	.	.	.	.	16e/)	.	16gg#\	.	.	.	.	.	.	.	.	.	.	.
8E\	.	.	8B/	.	(16g#X/	.	16gg#\	.	.	.	.	.	.	.	8b\J)	.	.	.
.	.	.	.	.	16b/JJ)	.	16gg#\JJ	.	16E\	-ni-	16B\	-ni-	16g#\	-ni-	.	.	.	.
8E\	7	.	8B/	.	16ee\LL	.	16gg#\LL	.	4E\	-e	4B\	-ge	4g#\	-e	(8ee\L	pro-	.	.
.	.	.	.	.	16dd\	.	16gg#\	.	.	.	.	.	.	.	.	.	.	.
8E\J	.	.	8B/J	.	16cc\	.	16gg#\	.	.	.	.	.	.	.	8dd\J)	.	.	.
.	.	.	.	.	16b\JJ	.	16gg#\JJ	.	.	.	.	.	.	.	.	.	.	.
!	!	!	!LO:LB:g=original	!	!	!	!	!	!	!	!	!	!	!	!	!	!	!
=8	=8	=8	=8	=8	=8	=8	=8	=8	=8	=8	=8	=8	=8	=8	=8	=8	=8	=8
8AA/L	#	.	8A/L	.	16cc#X\LL	.	(16aa\LL	.	4A\	a	4A/	in	(8a\L	in	8.cc#X\	-ge-	8a\L	8cc#X\L
.	.	.	.	.	16cc#\	.	16a\)	.	.	.	.	.	.	.	.	.	.	.
8AA/	.	.	8A/	.	16cc#\	.	16cc#X\	.	.	.	.	.	8e\J)	.	.	.	16a\L	16cc#\L
.	.	.	.	.	16cc#\JJ	.	16ee\JJ	.	.	.	.	.	.	.	16cc#\	-ni-	16a\JJ	16cc#\JJ
8AA/	7nr	.	8A/	.	16cc#\LL	.	16aa\LL	.	4AA/	pro-	4A/	pro-	(8a\L	pro-	4cc#\	-e	8a\L	8cc#\L
.	.	.	.	.	16cc#\	.	16ggn\	.	.	.	.	.	.	.	.	.	.	.
8AA/J	.	.	8A/J	.	16cc#\	.	16ff#\	.	.	.	.	.	8gn\J)	.	.	.	8a\J	8cc#\J
*	*	*	*	*	*	*	*	*	*	*	*	*	*	*	*	*	*	*custos:gg
.	.	.	.	.	16cc#\JJ	.	16ee\JJ	.	.	.	.	.	.	.	.	.	.	.
!	!	!	!	!	!	!	!	!	!	!	!LO:LB:g=original	!	!	!	!LO:PB:g=original	!	!	!LO:LB:g=original
=-	=-	=-	=-	=-	=-	=-	=-	=-	=-	=-	=-	=-	=-	=-	=-	=-	=-	=-
!	!	!	!	!	!LO:TX:t=P:problem=mixed beam	!	!	!	!	!	!	!	!	!	!	!	!	!
8Dn/L	.	.	8A/L	.	(16dd\LL	.	16ff#\LL	.	8.Dn\	-ge-	8.A/	-ge-	8.f#\	-ge-	(8dd\L	in	2a\	2dd\
.	.	.	.	.	16d/)	.	16ff#\	.	.	.	.	.	.	.	.	.	.	.
8D/	.	.	8A/	.	(16f#/	.	16ff#\	.	.	.	.	.	.	.	8a\J)	.	.	.
.	.	.	.	.	16a/JJ)	.	16ff#\JJ	.	16D\	-ni-	16A/	-ni-	16f#\	-ni-	.	.	.	.
8D/	7nr	.	8A/	.	16dd\LL	.	16ff#\LL	.	4D\	-es	4A/	-es	4f#\	-es	(8dd\L	pro-	.	.
.	.	.	.	.	16ccn\	.	16ff#\	.	.	.	.	.	.	.	.	.	.	.
8D/J	.	.	8A/J	.	16b\	.	16ff#\	.	.	.	.	.	.	.	8ccn\J)	.	.	.
.	.	.	.	.	16a\JJ	.	16ff#\JJ	.	.	.	.	.	.	.	.	.	.	.
=9	=9	=9	=9	=9	=9	=9	=9	=9	=9	=9	=9	=9	=9	=9	=9	=9	=9	=9
8GG/L	.	.	8G/L	.	16b/LL	.	(16gg\LL	.	8G\	in	8G/	in	8g\	in	8.b\	-ge-	2b\	2dd\
.	.	.	.	.	16b/	.	16g\)	.	.	.	.	.	.	.	.	.	.	.
8GG/	.	.	8G/	.	16b/	.	16b\	.	8G\	pro-	8G/	pro-	8d\	pro-	.	.	.	.
.	.	.	.	.	16b/JJ	.	16dd\JJ	.	.	.	.	.	.	.	16b\	-ni-	.	.
8GG/	7nr	.	8G/	.	16b/LL	.	16gg\LL	.	8GG/	-ge-	8G/	-ge-	8g\	-ge-	4b\	-es	.	.
.	.	.	.	.	16b/	.	16ffn\	.	.	.	.	.	.	.	.	.	.	.
8GG/J	.	.	8G/J	.	16b/	.	16ee\	.	16GG/	-ni-	16G/	-ni-	16fn\	-ni-	.	.	.	.
.	.	.	.	.	16b/JJ	.	16dd\JJ	.	16GG/	-es	16G/	-es	16f\	-es	.	.	.	.
!	!	!	!	!	!	!	!	!	!LO:LB:g=original	!	!	!	!	!	!	!	!	!
=-	=-	=-	=-	=-	=-	=-	=-	=-	=-	=-	=-	=-	=-	=-	=-	=-	=-	=-
8E\L	6	.	8g\L	.	8cc\L	.	32cc\KLL	.	4r	.	4r	.	4r	.	4r	.	2r	2r
.	.	.	.	.	.	.	16.g\JJ	.	.	.	.	.	.	.	.	.	.	.
8E\	.	.	8g\	.	8cc\	.	32ee\KLL	.	.	.	.	.	.	.	.	.	.	.
.	.	.	.	.	.	.	16.cc\JJ	.	.	.	.	.	.	.	.	.	.	.
8E\	-5	.	8g\	.	8cc\	.	16gg|>\LL	.	4E\	ti-	4c\	ti-	4g\	ti-	4cc\	ti-	.	.
.	.	.	.	.	.	.	(16b-X\	.	.	.	.	.	.	.	.	.	.	.
8E\J	.	.	8g\J	.	8cc\J	.	16a\	.	.	.	.	.	.	.	.	.	.	.
.	.	.	.	.	.	.	16g\JJ)	.	.	.	.	.	.	.	.	.	.	.
!	!	!	!	!	!LO:LB:g=original	!	!LO:LB:g=original	!	!	!	!	!	!	!	!	!	!	!
=10	=10	=10	=10	=10	=10	=10	=10	=10	=10	=10	=10	=10	=10	=10	=10	=10	=10	=10
8Fn\L	9	.	8a\L	.	8cc\L	.	16a\LL	.	8.Fn\	-men-	8.c\	-men-	8.fn\	-men-	8.a\	-men-	2r	2r
!	!	!	!	!	!	!	!	!LO:DY:B:t=for	!	!	!	!	!	!	!	!	!	!
.	.	.	.	.	.	.	(16gg\	f	.	.	.	.	.	.	.	.	.	.
8F\	.	.	8a\	.	8cc\	.	16ffn\	.	.	.	.	.	.	.	.	.	.	.
.	.	.	.	.	.	.	16ee\JJ)	.	16F\	-ti-	16c\	-ti-	16f\	-ti-	16a\	-ti-	.	.
8F\	8	.	8a\	.	8cc\	.	(16ee\LL	.	4F\	-bus	4c\	-bus	4f\	-bus	4a\	-bus	.	.
.	.	.	.	.	.	.	16ff\)	.	.	.	.	.	.	.	.	.	.	.
8F\J	.	.	8a\J	.	8cc\J	.	(16ee\	.	.	.	.	.	.	.	.	.	.	.
!	!	!	!	!	!	!	!LO:TX:a:t=vi	!	!	!	!	!	!	!	!	!	!	!
.	.	.	.	.	.	.	16ff\JJ)	.	.	.	.	.	.	.	.	.	.	.
!	!	!	!	!	!	!	!	!	!	!	!	!	!LO:LB:g=original	!	!	!	!	!
=-	=-	=-	=-	=-	=-	=-	=-	=-	=-	=-	=-	=-	=-	=-	=-	=-	=-	=-
!	!	!	!	!	!	!	!LO:TX:a:t=de	!	!	!	!	!	!	!	!	!	!	!
8F#X\L	6	.	8a\L	.	8dd\L	.	(32dd\KLL	.	4r	.	4r	.	4r	.	4r	.	4r	4r
.	.	.	.	.	.	.	16.a\JJ)	.	.	.	.	.	.	.	.	.	.	.
8F#\	.	.	8a\	.	8dd\	.	(32ff#X\KLL	.	.	.	.	.	.	.	.	.	.	.
.	.	.	.	.	.	.	16.dd\JJ)	.	.	.	.	.	.	.	.	.	.	.
8F#\	5	.	8a\	.	8dd\	.	16aa|>\LL	.	4F#X\	ti-	4d\	ti-	4a\	ti-	4dd\	ti-	4a\	4dd\
.	.	.	.	.	.	.	(16cc\	.	.	.	.	.	.	.	.	.	.	.
8F#\J	.	.	8a\J	.	8dd\J	.	16b\	.	.	.	.	.	.	.	.	.	.	.
.	.	.	.	.	.	.	16a\JJ)	.	.	.	.	.	.	.	.	.	.	.
=11	=11	=11	=11	=11	=11	=11	=11	=11	=11	=11	=11	=11	=11	=11	=11	=11	=11	=11
8G\L	.	.	8b\L	.	8dd\L	.	16b|>\LL	.	8.G\	-men-	8.d\	-men-	8.g\	-men-	8.b\	-men-	8.b\L	8.dd\L
.	.	.	.	.	.	.	(16aa\	.	.	.	.	.	.	.	.	.	.	.
8G\	.	.	8b\	.	8dd\	.	16gg\	.	.	.	.	.	.	.	.	.	.	.
.	.	.	.	.	.	.	16ff#\JJ)	.	16G\	-ti-	16d\	-ti-	16g\	-ti-	16b\	-ti-	16b\Jk	16dd\Jk
8G\	.	.	8b\	.	8dd\	.	(16ff#\LL	.	4G\	-bus	4d\	-bus	4g\	-bus	4b\	-bus	4b\	4dd\
.	.	.	.	.	.	.	16gg\)	.	.	.	.	.	.	.	.	.	.	.
8G\J	.	.	8b\J	.	8dd\J	.	(16ff#\	.	.	.	.	.	.	.	.	.	.	.
.	.	.	.	.	.	.	16gg\JJ)	.	.	.	.	.	.	.	.	.	.	.
*	*	*	*	*	*	*	*custos:ee	*	*	*	*	*	*	*	*	*	*	*
8GG#X/L	6	.	8b\L	.	8ee\L	.	(32ee\KLL	.	4r	.	4r	.	4r	.	4r	.	2r	2r
.	.	.	.	.	.	.	16.b\JJ)	.	.	.	.	.	.	.	.	.	.	.
8GG#/	.	.	8b\	.	8ee\	.	(32gg#X\KLL	.	.	.	.	.	.	.	.	.	.	.
.	.	.	.	.	.	.	16.ee\JJ)	.	.	.	.	.	.	.	.	.	.	.
8GG#/	5	.	8b\	.	8ee\	.	16bb|>\LL	.	4GG#X/	ti-	4e\	ti-	4b\	ti-	4ee\	ti-	.	.
.	.	.	.	.	.	.	(16dd\	.	.	.	.	.	.	.	.	.	.	.
8GG#/J	.	.	8b\J	.	8ee\J	.	16cc\	.	.	.	.	.	.	.	.	.	.	.
.	.	.	.	.	.	.	16b\JJ)	.	.	.	.	.	.	.	.	.	.	.
=12	=12	=12	=12	=12	=12	=12	=12	=12	=12	=12	=12	=12	=12	=12	=12	=12	=12	=12
!	!	!	!	!	!	!	!	!	!	!	!	!	!	!	!	!	!LO:TX:a:t=2.	!LO:TX:a:t=2.
8AA/L	.	.	8e\L	.	8cc\L	.	16cc|>\LL	.	8AA/L	-men-	8e\L	-men-	[2a\	-men-	8cc\L	-men-	0r	0r
.	.	.	.	.	.	.	(16bb\	.	.	.	.	.	.	.	.	.	.	.
8BB/	.	.	8d\	.	8b\J	.	16aa\	.	8BB/	.	8d\	.	.	.	8dd\	.	.	.
.	.	.	.	.	.	.	16gg#X\JJ)	.	.	.	.	.	.	.	.	.	.	.
8C/	6	.	8c\	.	2a/	.	(32aa\KLL	.	8C/	.	8c\	.	.	.	8ee\	.	.	.
.	.	.	.	.	.	.	16.ee\JJ)	.	.	.	.	.	.	.	.	.	.	.
8D/J	.	.	8B\J	.	.	.	(32ffn\KLL	.	8D/J	.	8A\J	.	.	.	8ffn\J	.	.	.
.	.	.	.	.	.	.	16.a\JJ)	.	.	.	.	.	.	.	.	.	.	.
!LO:LB:g=original	!	!	!	!	!	!	!	!	!	!	!LO:LB:g=original	!	!	!	!	!	!	!
=-	=-	=-	=-	=-	=-	=-	=-	=-	=-	=-	=-	=-	=-	=-	=-	=-	=-	=-
8E\L	6 4	.	4.E/	.	.	.	8.cc\L	.	4.E\	.	4.E/	.	(4a\]	.	(4cc\	.	.	.
8E\	.	.	.	.	.	.	.	.	.	.	.	.	.	.	.	.	.	.
.	.	.	.	.	.	.	16dd\Jk	.	.	.	.	.	.	.	.	.	.	.
8E\	-5 3	.	.	.	4gnT/	.	4b-XT/	.	.	.	.	.	8gn\)	.	8b-X\)	.	.	.
8D\J	.	.	8e\	.	.	.	.	.	16E\	-ti-	16E/	-ti-	16g\	-ti-	16b-\	-ti-	.	.
.	.	.	.	.	.	.	.	.	16D\	-bus	16E/	-bus	16g\	-bus	16b-\	-bus	.	.
=13	=13	=13	=13	=13	=13	=13	=13	=13	=13	=13	=13	=13	=13	=13	=13	=13	=13	=13
8C#X/L	6 5	.	8e\L	.	16r	.	16A/LL	.	4C#X/	e-	4E/	e-	4g\	e-	4a\	e-	.	.
.	.	.	.	.	(>16A/LL	.	(>16c#X/	.	.	.	.	.	.	.	.	.	.	.
8C#/	.	.	8e\	.	16c#X/	.	16e/	.	.	.	.	.	.	.	.	.	.	.
.	.	.	.	.	16e/JJ	.	16a/JJ	.	.	.	.	.	.	.	.	.	.	.
8C#/	.	.	8e\	.	16a\LL	.	16cc#X\LL	.	4C#/	-um	4E/	-um	4g\	-um	4a\	-um	.	.
.	.	.	.	.	16cc#X\	.	16ee\	.	.	.	.	.	.	.	.	.	.	.
8C#/J	.	.	8e\J	.	16ee\	.	16gg\	.	.	.	.	.	.	.	.	.	.	.
.	.	.	.	.	16gg\JJ)	.	16bb-X\JJ)	.	.	.	.	.	.	.	.	.	.	.
!	!	!	!	!	!	!	!	!	!	!	!	!	!	!	!LO:LB:g=original	!	!	!
=-	=-	=-	=-	=-	=-	=-	=-	=-	=-	=-	=-	=-	=-	=-	=-	=-	=-	=-
!	!	!	!	!	!LO:TX:t=P:problem=mixed beam	!	!	!	!	!	!	!	!	!	!	!	!	!
8C#/L	.	.	8e\L	.	8.a/L	.	(16aa\LL	.	4r	.	4r	.	4r	.	4r	.	.	.
.	.	.	.	.	.	.	16ff#X\)	.	.	.	.	.	.	.	.	.	.	.
8C#/	.	.	8a\	.	.	.	(16ff#\	.	.	.	.	.	.	.	.	.	.	.
.	.	.	.	.	16ee\Jk	.	16gg\JJ)	.	.	.	.	.	.	.	.	.	.	.
8C#/	.	.	8a\	.	4eeT\	.	4ggT\	.	4C#/	ti-	4A/	ti-	4g\	ti-	4ee\	ti-	.	.
8C#/J	.	.	8a\J	.	.	.	.	.	.	.	.	.	.	.	.	.	.	.
=14	=14	=14	=14	=14	=14	=14	=14	=14	=14	=14	=14	=14	=14	=14	=14	=14	=14	=14
.	.	.	.	.	.	.	.	.	.	.	.	.	.	.	8qqee/	.	.	.
8D\L	n	.	8a\L	.	4dd\	.	16ffn|>\LL	.	8D\L	-men-	4.A/	-men-	8fn\L	-me-	4.dd\	-men-	2r	2r
.	.	.	.	.	.	.	(16ee\	.	.	.	.	.	.	.	.	.	.	.
8E\	.	.	8g\	.	.	.	16dd\	.	8E\	.	.	.	8g\J	.	.	.	.	.
.	.	.	.	.	.	.	16cc#X\JJ)	.	.	.	.	.	.	.	.	.	.	.
*	*	*	*	*	*2\right	*	*	*	*	*	*	*	*	*	*	*	*	*
8Fn\	6	.	8a\	.	2dd\	.	(32dd\KLL	.	8Fn\J	.	.	.	8a\	-n-	.	.	.	.
.	.	.	.	.	.	.	16.a\JJ)	.	.	.	.	.	.	.	.	.	.	.
!	!	!	!LO:TX:a:t=P:problem=♭ above	!	!	!	!	!	!	!	!	!	!	!	!	!	!	!
8G\J	.	.	8b-X\J	.	.	.	(32b-X/KLL	.	16G\	-ti-	16d\	-ti-	16b-X\	-ti-	16dd\	-ti-	.	.
.	.	.	.	.	.	.	16.d/JJ)	.	.	.	.	.	.	.	.	.	.	.
.	.	.	.	.	.	.	.	.	16G\	-bus	16d\	-bus	16b-\	-bus	16dd\	-bus	.	.
!	!	!	!	!	!	!	!	!	!LO:LB:g=original	!	!	!	!	!	!	!	!	!
=-	=-	=-	=-	=-	=-	=-	=-	=-	=-	=-	=-	=-	=-	=-	=-	=-	=-	=-
!LO:TX:t=P:problem=mixed beam	!	!	!	!	!	!	!	!	!	!	!	!	!	!	!	!	!	!
8A\L	4	.	8a\L	.	.	.	8.fn/L	.	(4A\	e-	2A/	e-	4fn\	e-	(4dd\	e-	8a\L	8a\L
8A\	.	.	8a\	.	.	.	.	.	.	.	.	.	.	.	.	.	16a\L	16a\L
.	.	.	.	.	.	.	16g/Jk	.	.	.	.	.	.	.	.	.	16a\JJ	16a\JJ
8AA/	#	.	8g\	.	4cc#Xt\	.	4et/	.	4AA/)	.	.	.	4et\	.	4cc#Xt\)	.	16a\LL	16a\LL
.	.	.	.	.	.	.	.	.	.	.	.	.	.	.	.	.	16a\	16a\
8AA/J	.	.	8g\J	.	.	.	.	.	.	.	.	.	.	.	.	.	16a\	16a\
.	.	.	.	.	.	.	.	.	.	.	.	.	.	.	.	.	16a\JJ	16a\JJ
!	!	!	!	!	!	!	!LO:LB:g=original	!	!	!	!	!	!	!	!	!	!LO:LB:g=original	!
=15	=15	=15	=15	=15	=15	=15	=15	=15	=15	=15	=15	=15	=15	=15	=15	=15	=15	=15
!	!	!	!	!	!	!	!LO:TX:t=P:problem=mixed beam	!	!	!	!	!	!	!	!	!	!	!
!	!	!LO:DY:b:t=solo piano.	!	!LO:DY:b:t=po.	!LO:TX:t=P:problem=mixed beam	!LO:DY:b:t=piano	!	!	!	!	!	!	!	!	!	!	!	!
1D	8 n3	p	16fn\LL	p	16dd\LL	p	16d|>/LL	.	4D/	-um	4A/	-um	4d\	-um	4dd\	-um	4a\	4a\
!	!	!	!	!	!	!	!	!LO:DY:b:t=pia.	!	!	!	!	!	!	!	!	!	!
.	7\ 4 2	.	16d\	.	16f#/	.	(16dd\	p	.	.	.	.	.	.	.	.	.	.
.	n7 5 3#r	.	16d\	.	16f#/	.	16dd\	.	.	.	.	.	.	.	.	.	.	.
.	n6 4	.	16e\JJ	.	16g/JJ	.	16cc#X\JJ)	.	.	.	.	.	.	.	.	.	.	.
.	.	.	16E/LL	.	16g/LL	.	4cc#t\	.	4r	.	4r	.	4r	.	4r	.	4r	4r
.	.	.	16E/	.	16g/	.	.	.	.	.	.	.	.	.	.	.	.	.
.	.	.	16E/	.	16g/	.	.	.	.	.	.	.	.	.	.	.	.	.
.	.	.	16E/JJ	.	16g/JJ	.	.	.	.	.	.	.	.	.	.	.	.	.
!	!	!	!LO:LB:g=original	!	!	!	!	!	!	!	!	!	!	!	!	!	!	!
=-	=-	=-	=-	=-	=-	=-	=-	=-	=-	=-	=-	=-	=-	=-	=-	=-	=-	=-
.	.	.	16F#X/LL	.	16a/LL	.	16ccn|>\LL	.	2r	.	2r	.	2r	.	2r	.	2r	2r
.	.	.	16F#/	.	16a/	.	16cc|>\	.	.	.	.	.	.	.	.	.	.	.
.	.	.	16F#/	.	16a/	.	(16cc\	.	.	.	.	.	.	.	.	.	.	.
.	.	.	16F#/JJ	.	16d/JJ	.	16bn\JJ)	.	.	.	.	.	.	.	.	.	.	.
.	.	.	16G/LL	.	16d/LL	.	4bt\	.	.	.	.	.	.	.	.	.	.	.
.	.	.	16G/	.	16d/	.	.	.	.	.	.	.	.	.	.	.	.	.
.	.	.	16G/	.	16d/	.	.	.	.	.	.	.	.	.	.	.	.	.
.	.	.	16G/JJ	.	16d/JJ	.	.	.	.	.	.	.	.	.	.	.	.	.
!	!	!	!	!	!LO:LB:g=original	!	!	!	!	!	!	!	!LO:LB:g=original	!	!	!	!	!
=16	=16	=16	=16	=16	=16	=16	=16	=16	=16	=16	=16	=16	=16	=16	=16	=16	=16	=16
!	!	!	!	!	!	!	!	!	!	!	!	!	!	!	!	!	!LO:TX:a:t=1.	!LO:TX:a:t=1
8C#X|</L	7-r 5	.	8e|>\L	.	8g|</L	.	8b-X|</L	.	1r	.	1r	.	1r	.	1r	.	1r	1r
8C#|</	.	.	8e|>\	.	8g|</	.	8b-|</	.	.	.	.	.	.	.	.	.	.	.
8C#|</	6 5	.	8e|>\	.	8g|</	.	8a|</	.	.	.	.	.	.	.	.	.	.	.
8C#|</J	.	.	8e|>\J	.	8g|</J	.	8a|</J	.	.	.	.	.	.	.	.	.	.	.
*	*	*	*2\right	*	*	*	*	*	*	*	*	*	*	*	*	*	*	*
2D/	#	.	2d\	.	2f#X/	.	2a/	.	.	.	.	.	.	.	.	.	.	.
==	==	==	==	==	==	==	==	==	==	==	==	==	==	==	==	==	==	==
*-	*-	*-	*-	*-	*-	*-	*-	*-	*-	*-	*-	*-	*-	*-	*-	*-	*-	*-
!!!system-decoration: [(s1,s2)][(s3,s4,s5,s6)][(s7,s8,s9)]s10
!!!RDF**kern: < = below
!!!RDF**kern: > = above
!!!RDF**kern: | = vertical stroke
!!!ENC: Filip Voros
!!!END: 2022-03-28
!!!AIN: 1 alto 1 bass 2 cor 1 organ 1 soprn 1 tenor 1 viola 2 violn
!!!ENC: Marta Chmielewska
!!!END: 2022-03-29
